SVG/REQ-alt.svg

<?xml version="1.0" encoding="UTF-8"?>
<svg width="227px" height="227px" viewBox="0 0 227 227" version="1.1" xmlns="http://www.w3.org/2000/svg" xmlns:xlink="http://www.w3.org/1999/xlink">
    <!-- Generator: Sketch 50.2 (55047) - http://www.bohemiancoding.com/sketch -->
    <title>req</title>
    <desc>Created with Sketch.</desc>
    <defs></defs>
    <g id="Page-1" stroke="none" stroke-width="1" fill="none" fill-rule="evenodd">
        <g id="req" fill="#000000" fill-rule="nonzero">
            <path d="M113.5,227 C50.8125312,227 0,176.187469 0,113.5 C0,50.8125312 50.8125312,0 113.5,0 C176.187469,0 227,50.8125312 227,113.5 C227,176.187469 176.187469,227 113.5,227 Z M70.9375,42.5625 L70.9375,54.7779375 L119.997875,54.7850313 C126.3255,54.6999062 130.971906,55.2248438 133.922906,56.35275 C144.606094,59.9918438 151.912656,71.0013438 151.054312,82.0463125 C150.78475,94.82925 139.385094,106.129594 126.353875,106.477187 C115.060625,106.63325 103.760281,106.491375 92.4599375,106.548125 C103.065094,123.856875 118.990563,149.82 140.236344,184.4375 L150.380406,178.067313 C138.186307,158.150615 125.973228,138.245543 113.741188,118.352125 C120.884594,118.224438 128.191156,118.955094 135.150125,116.983031 C146.117063,114.081688 155.495,106.072844 159.97825,95.8436563 C164.929688,84.72775 164.078438,71.2425313 157.566375,60.9069375 C151.873442,51.8332863 142.634778,45.5643772 132.099813,43.6265625 C128.978563,42.9668438 124.204469,42.6121563 117.805906,42.5625 L70.9375,42.5625 Z" id="Shape"></path>
        </g>
    </g>
</svg>

<svg width="227" height="227" viewBox="0 0 227 227" xmlns="http://www.w3.org/2000/svg"><title>req</title><path d="M113.5 227C50.813 227 0 176.187 0 113.5S50.813 0 113.5 0 227 50.813 227 113.5 176.187 227 113.5 227zM70.937 42.562v12.216l49.06.007c6.329-.085 10.975.44 13.926 1.568 10.683 3.639 17.99 14.648 17.131 25.693-.27 12.783-11.669 24.084-24.7 24.431-11.293.156-22.594.014-33.894.071 10.605 17.309 26.53 43.272 47.776 77.89l10.144-6.37a36755.176 36755.176 0 0 0-36.639-59.716c7.144-.128 14.45.603 21.41-1.369 10.966-2.901 20.344-10.91 24.827-21.14 4.952-11.115 4.1-24.6-2.412-34.936a38.228 38.228 0 0 0-25.466-17.28c-3.121-.66-7.896-1.015-14.294-1.065H70.938z"/></svg>
